X: 3
T: The Nine Points Of Roguery
R: reel
M: 4/4
L: 1/8
K: Dmaj
A, | "D" D2 FD GFED | AdAF AdAF | {DE}D2 FA "G" GFEd |"C" =cE (3EEE CEEF |
"D" DEFD GFED | AdAF AdAF | {DE}D2 FA "G" GFEc | dD (3DDD dDD :|
|: B | "C" {d}C2 cA "G/B" {d} B2 BG | "Am" {Ad} A2 Ad "G/B" AGFE | "D" (3DDD FA "G" GFEd | "C"=cE (3EEE "Am" cEEd|
"C" =cecA "G/B" BdBG | "Am" Adcd "G/B" fdAF | "D" (3DED FA "G" GFEc |"D" dD (3DDD dDD :|
|: c| "D" d2 fa "C" gfec | "D" defg abaf | d2 fa "C" gfga | "Am" be (3dfd beef|
"D" d2 fa "C" gfec | "D" defg abaf | d2 fa "C" gfga | "Am" fage "D" fdA:|
B | "C" =cedA "G/B" BdBG | " Am" Adcd "G/B" fdAF | "D" {DE}D2 FA GFEd |"C" =cE (3EEE "Am" cEEd |
"C" (3=cdc ca "G/B" B2 BG | "Am" {B} A2 Ad "G/B" AGFE | "D" (3DED FA "G"GFEc | "D" dD (3DDD dDDB |
"C" [E2=c2] cA "G/B" [D2B2] BG | "Am" A2 Ad "G/B" AGFE | "D" {DE} D2 FA"G" GFEd | "C" =cE (3EEE "Am" cEEd |
"C" =cecA "G/B" BdBG | "Am" Adcd "D" fdAF | (3DED FA "G" GFEc | "D" dD (3DDD dDD |]


Tune 429	Setting 429

